X: 2
T: The Repeal Of The Union
R: reel
M: 4/4
L: 1/8
K: Dmix
AD (3DDD AD (3FED | GEcE dEcE | AD (3FED ADFD | GEcE EDD :|Ad-de fdec | A2 (3cBA dBcB | Adde (3fed ed | GEcE DcBc | Ad (3ddd fd e2 | A>BcA dB (3cBA | a2 (3gfe fdec | GEcE D3 ||


Tune 545	Setting 28420

